X: 2087
T: the SQUARE AND COMPASS
C:
Q: "Reel."
R: Reel.
%R: reel
B: James Kerr "Merry Melodies" v.2 p.12 #087
Z: 2016 John Chambers <jc:trillian.mit.edu>
M: C
L: 1/8
K: C
E |\
C2E2 cGEG | FDD^c dfed |\
cGEG cdec | Aagf edc :|\
uf |\
ecgc acge | fdad bdaf |
ecgc acge | fagf eccf |\
ecgc acge | fede fgac |\
AcBd cedf | eagf ecc |]
